X:145
T: WIE LIEBLICH SCHALLT IM GRUENEN WALD
N: B0174
O: Europa, Mitteleuropa, Deutschland
R: Natur -, Wander -, Kinder - Lied, Wald
M: 6/8
L: 1/8
K: G
D | GABA2D | ABcB2
B | d2BdcB | A4z
D | c2cB2G | e2ed2
d | B2BA2A | G4z
d | B2BA2A | G4z

@@@ Tune index: 1948
